packages/components/src/components/icon/common/ic-amplifier.svg

<svg width="96" height="96" viewBox="0 0 96 96" fill="none" xmlns="http://www.w3.org/2000/svg">
<path fill-rule="evenodd" clip-rule="evenodd" d="M48.0011 0C74.5093 0 96 21.4915 96 48C96 74.5085 74.5093 96 48.0011 96C21.4907 96 0 74.5085 0 48C0 21.4915 21.4907 0 48.0011 0Z" fill="#FF444F"/>
<path d="M32.9195 59.9895C32.1703 60.1845 31.4066 60.3182 30.6358 60.3895C32.9944 66.4677 36.0779 73.6616 37.1338 75.7304C38.2585 77.918 40.2985 78.0305 41.3169 77.7586L48.0992 75.9367C49.3113 75.6242 51.3014 74.1304 50.5328 71.4459C50.1111 69.9647 46.5872 64.4333 44.0692 58.2738C40.3036 58.4614 36.5673 59.0363 32.9195 59.9895ZM65.622 53.0424C64.5942 52.9956 61.5139 50.7236 58.924 45.6673C60.5463 45.0545 61.8829 43.8603 62.674 42.3168C63.4652 40.7732 63.6544 38.9905 63.205 37.3152C62.7555 35.6399 61.6994 34.1915 60.242 33.2516C58.7846 32.3117 57.0299 31.9474 55.3189 32.2295C55.0315 26.4575 56.5685 22.9512 57.437 22.4855C58.6616 22.4855 63.9975 26.5763 66.6217 36.4046C69.224 46.1048 66.7997 52.2893 65.622 53.0424ZM55.6188 15.6885C52.5978 16.4979 50.4141 19.3449 49.2426 23.3543C42.8696 30.6388 32.076 34.7358 26.5433 36.2202C23.8457 36.9473 21.547 38.7157 20.1518 41.1369C18.7566 43.5582 18.3791 46.4344 19.1021 49.1338C19.8252 51.8333 21.5897 54.1353 24.0082 55.5344C26.4267 56.9334 29.3014 57.3151 32.001 56.5956C37.5337 55.1112 48.9302 53.2706 58.0962 56.3956C61.1171 59.2801 64.4286 60.6551 67.4495 59.8332C74.01 58.0738 76.6842 46.7642 73.4196 34.5733C70.155 22.3824 62.1793 13.9291 55.6188 15.6885Z" fill="white"/>
</svg>

<svg width="96" height="96" fill="none" xmlns="http://www.w3.org/2000/svg"><path fill-rule="evenodd" clip-rule="evenodd" d="M48.001 0C74.51 0 96 21.491 96 48c0 26.508-21.49 48-47.999 48C21.491 96 0 74.508 0 48 0 21.491 21.49 0 48.001 0Z" fill="#FF444F"/><path d="M32.92 59.99c-.75.194-1.513.328-2.284.4 2.358 6.078 5.442 13.272 6.498 15.34 1.124 2.188 3.164 2.3 4.183 2.029l6.782-1.822c1.212-.313 3.202-1.807 2.434-4.491-.422-1.481-3.946-7.013-6.464-13.172a54.908 54.908 0 0 0-11.15 1.715Zm32.702-6.948c-1.028-.046-4.108-2.318-6.698-7.375a6.99 6.99 0 0 0 4.281-8.352 6.991 6.991 0 0 0-7.886-5.085c-.288-5.772 1.25-9.279 2.118-9.744 1.225 0 6.56 4.09 9.185 13.919 2.602 9.7.178 15.884-1 16.637ZM55.619 15.688c-3.021.81-5.205 3.657-6.376 7.666-6.373 7.285-17.167 11.382-22.7 12.866a10.544 10.544 0 0 0-7.44 12.914A10.547 10.547 0 0 0 32 56.596c5.533-1.485 16.93-3.325 26.095-.2 3.021 2.884 6.333 4.26 9.354 3.437 6.56-1.76 9.234-13.069 5.97-25.26-3.265-12.19-11.24-20.644-17.801-18.885Z" fill="#fff"/></svg>
